!!!!SEGMENT: pl-kk--kk-i-6--003_anonim--ave-maria-gratia-plena.krn
!!!cenid: 16xx:958
!!!COM: Anonim
!!!COM-rismid: pe30004985
!!!CDT:
!!!CNT:
!!!OTL: Ave Maria gratia plena
!!!PDT:
!!!AGN: Sacred
!!!SMS-siglum: PL-Kk
!!!SMS-shelfmark: Kk.I.6
!!!SMS-shelfwork: 003 W
!!!SMS-variant:
!!!SMS-altvar:
!!!NIFC-rismid:
!!!URL-scan: http://repozytorium.nifc.pl/skany/pl-kk-nut--i-6
!!!ONB-nifc: UWAGA: C (skan 0004, s. 4-5), T (skan 0101-0102, s. 6-8), B (skan 0213, s. 6-7) Następny utwór: Beata viscera Maria
!!!key:
**kern	**text	**kern	**text	**kern	**text
*part3	*part3	*part2	*part2	*part1	*part1
*staff3	*staff3	*staff2	*staff2	*staff1	*staff1
*Iempty	*	*Itenor	*	*Ivox	*
*I"Baſsus.	*	*I"Tenor.	*	*I"Cantus.	*
*I'B	*	*I'T	*	*I'S	*
*clefF4	*	*clefC4	*	*clefC4	*
*k[]	*	*k[]	*	*k[]	*
*C:	*	*C:	*	*C:	*
*M2/1	*	*M2/1	*	*M2/1	*
*met(C|)	*	*met(C|)	*	*met(C|)	*
=1-	=1-	=1-	=1-	=1-	=1-
!LO:TX:a:t=Offertorium.	!	!	!	!	!
*	*	*	*	*lig	*
!	!	!	!	!LO:TX:a:t=Offertorium.	!
2r	.	0r	.	1F	A-
1F	A-	.	.	.	.
.	.	.	.	1G	.
2E\	.	.	.	.	.
*	*	*	*	*Xlig	*
=2-	=2-	=2-	=2-	=2-	=2-
*	*	*	*	*lig	*
2D/	-ue	2r	.	1A	.
2C/	.	1c	A-	.	.
1D	.	.	.	1F	.
.	.	2B\	-ue	.	.
*	*	*	*	*Xlig	*
=3-	=3-	=3-	=3-	=3-	=3-
*lig	*	*	*ij	*lig	*
1C	.	1c	.	1G	.
1D	.	0A	A-	1F	.
*Xlig	*	*	*	*Xlig	*
=4-	=4-	=4-	=4-	=4-	=4-
*	*	*	*	*lig	*
1AA	.	.	.	1E	.
4A\	.	0d	.	1D	.
4G\	.	.	.	.	.
4F\	.	.	.	.	.
4E\	.	.	.	.	.
*	*	*	*	*Xlig	*
=5-	=5-	=5-	=5-	=5-	=5-
*	*	*	*	*lig	*
1D	.	.	.	1F	.
2C/	.	1G	-ue	1G	.
2E\	.	.	.	.	.
*	*	*	*Xij	*Xlig	*
=6-	=6-	=6-	=6-	=6-	=6-
*custos:GG	*	*	*	*	*
1D	.	2r	.	1A	.
.	.	2d\	A-	.	.
!LO:LB:g=original	!	!	!	!LO:TX:a:t=P:global:problem=oddech jako rozdzielacz słów	!
2GG/	.	2B\	-ue	1G,<	-ue
2.C/	Ma-	1c\	.	.	.
=7-	=7-	=7-	=7-	=7-	=7-
*	*	*	*	*lig	*
.	.	.	.	1G	Ma-
4D/	.	.	.	.	.
2E\	.	4B\	.	.	.
.	.	4c\	.	.	.
*	*	*	*	*custos:c	*
2.D/	.	2d\	.	1A	.
.	.	2D/	Ma-	.	.
8C/L	.	.	.	.	.
8BB/J	.	.	.	.	.
*	*	*	*	*Xlig	*
!	!	!	!	!LO:LB:g=original	!
=8-	=8-	=8-	=8-	=8-	=8-
*	*	*	*	*lig	*
1AA	-ri-	2E/	.	1c	-ri-
*	*	*custos:G	*	*	*
.	.	2F/	-ri-	.	.
!	!	!LO:LB:g=original	!	!	!
1GG	-a	1G	-a	1B	.
*	*	*	*	*Xlig	*
=9-	=9-	=9-	=9-	=9-	=9-
*	*	*	*	*lig	*
1rBB	.	1rA	.	1c	.
1AA	Ma-	2r	.	1A	.
.	.	2c\	Ma-	.	.
*	*	*	*	*Xlig	*
=10-	=10-	=10-	=10-	=10-	=10-
*	*	*lig	*	*lig	*
1D	-ri-	1d	-ri-	1F	.
1GG	-a	1B	.	1G	.
*	*	*Xlig	*	*Xlig	*
=11-	=11-	=11-	=11-	=11-	=11-
2.C/	gra-	2.c\	-a	1G,<	-a
4D/	.	4B\	gra-	.	.
*	*	*	*	*lig	*
2E\	.	2G/	.	1G	gra-
2C/	.	2c\	-ti-	.	.
=12-	=12-	=12-	=12-	=12-	=12-
2.F\	.	1A	-a	1D	.
*custos:D	*	*	*	*	*
4E\	.	.	.	.	.
*	*	*	*	*Xlig	*
!LO:LB:g=original	!	!	!	!	!
*	*	*	*	*lig	*
4D/	.	1r	.	1F	.
4C/	.	.	.	.	.
2D/	.	.	.	.	.
=13-	=13-	=13-	=13-	=13-	=13-
1E	-ti-	2r	.	1G	.
*	*	*	*ij	*	*
.	.	2e\	gra-	.	.
*	*	*	*	*Xlig	*
*	*	*	*	*lig	*
1D	-a	2f\	-ti-	1A	.
.	.	1d\	-a	.	.
*	*	*	*Xij	*	*
=14-	=14-	=14-	=14-	=14-	=14-
1E	ple-	.	.	1G	.
.	.	2c\	gra-	.	.
*	*	*	*	*Xlig	*
*	*	*	*	*lig	*
1D	.	2d\	-ti-	1F	-ti-
.	.	2f\	-a	.	.
=15-	=15-	=15-	=15-	=15-	=15-
*	*	*	*ij	*	*
2GG/	-na	2d\	gra-	1G	.
1C	ple-	2.e\	.	.	.
*	*	*	*	*Xlig	*
.	.	.	.	1G,<	-a
*	*	*custos:d	*	*	*
.	.	4d\	.	.	.
!	!	!LO:PB:g=original	!	!	!
2D/	.	1d\	-ti-	.	.
=16-	=16-	=16-	=16-	=16-	=16-
*	*	*	*	*lig	*
1E	.	.	.	1G	ple-
.	.	2c\	.	.	.
*	*	*	*	*custos:G	*
1D	-na	1d	-a	1A	.
*	*	*	*Xij	*Xlig	*
!	!	!	!	!LO:PB:g=original	!
=17-	=17-	=17-	=17-	=17-	=17-
2rC	.	1e	ple-	1G	.
2C/	Do-	.	.	.	.
2GG/	-mi-	1d	-na	1G,<	-na
2BB/	-nus	.	.	.	.
=18-	=18-	=18-	=18-	=18-	=18-
*	*	*	*	*lig	*
2.AA/	te-	2.c\	Do-	1A	Do-
4GG/	.	4B\	.	.	.
4AA/	.	4c\	.	1c	.
4BB/	.	4B\	.	.	.
4C/	.	1A\	.	.	.
*custos:E	*	*	*	*	*
4D/	.	.	.	.	.
*	*	*	*	*Xlig	*
!LO:LB:g=original	!	!	!	!	!
=19-	=19-	=19-	=19-	=19-	=19-
*	*	*	*	*lig	*
1E	.	.	.	1B	.
.	.	2G/	-mi-	.	.
1AA	-cum	2A/	-nus	1A	.
.	.	2c\	.	.	.
*	*	*	*	*Xlig	*
=20-	=20-	=20-	=20-	=20-	=20-
1rD	.	2B\	.	1d	.
.	.	2A/	.	.	.
*lig	*	*	*	*lig	*
1C	Be-	1e	te-	1c	.
=21-	=21-	=21-	=21-	=21-	=21-
1D	.	1d	-cum	1A	.
*Xlig	*	*	*	*Xlig	*
*	*	*	*ij	*lig	*
2C/	-ne-	1.e	Do-	1c	.
2.C/	-di-	.	.	.	.
=22-	=22-	=22-	=22-	=22-	=22-
.	.	.	.	1G	.
4D/	.	.	.	.	.
*	*	*custos:d	*	*	*
2E\	.	2c\	.	.	.
*	*	*	*	*Xlig	*
!	!	!LO:LB:g=original	!	!	!
*	*	*	*	*lig	*
1D	.	2.d\	-mi-	1F	-mi-
.	.	4c\	.	.	.
=23-	=23-	=23-	=23-	=23-	=23-
2.E\	.	2B\	-nus	1G	.
.	.	1c	te-	.	.
4D/	.	.	.	.	.
*	*	*	*	*Xlig	*
2C/	.	.	.	1G,<	-nus
2BB/	.	2d\	.	.	.
=24-	=24-	=24-	=24-	=24-	=24-
*	*	*	*	*lig	*
1E	-cta	1e	.	1G	te-
1D	tu	2A/	.	1A	.
.	.	2d\	.	.	.
*	*	*	*	*Xlig	*
=25-	=25-	=25-	=25-	=25-	=25-
1rD	.	1d	-cum	1G	.
*	*	*	*Xij	*	*
*custos:AA	*	*	*	*custos:G	*
0GG	Be-	2.B\	Be-	1G,<	-cum
.	.	4c\	-ne-	.	.
!	!	!	!	!LO:LB:g=original	!
=26-	=26-	=26-	=26-	=26-	=26-
.	.	2d\	-di-	1G	Be-
.	.	4c\	.	.	.
.	.	4B\	.	.	.
!LO:LB:g=original	!	!	!	!	!
0AA	-ne-	2A/	.	1c	-ne-
*	*	*lig	*	*	*
.	.	1E/	.	.	.
=27-	=27-	=27-	=27-	=27-	=27-
*	*	*	*	*lig	*
.	.	.	.	1c	-di-
.	.	1.F	.	.	.
1D	-di-	.	.	1d	.
*	*	*Xlig	*	*Xlig	*
=28-	=28-	=28-	=28-	=28-	=28-
*	*	*	*	*lig	*
2.C/	.	1G	cta	1e	.
4BB/	.	.	.	.	.
1GG	.	2.G/	tu	1d	.
*	*	*custos:E	*	*	*
.	.	4F/	.	.	.
*	*	*	*	*Xlig	*
!	!	!LO:LB:g=original	!	!	!
=29-	=29-	=29-	=29-	=29-	=29-
*	*	*	*	*lig	*
1C	-cta	4E/	.	1c	-cta
.	.	4C/	.	.	.
.	.	1c	Be-	.	.
1GG	tu	.	.	1d	.
.	.	2B\	-ne-	.	.
*	*	*	*	*Xlig	*
=30-	=30-	=30-	=30-	=30-	=30-
0rD	.	2c\	-di-	1c,<	.
.	.	2A/	-cta	.	.
*	*	*	*	*lig	*
.	.	1A	tu	1c	tu
=31-	=31-	=31-	=31-	=31-	=31-
2rC	.	2r	.	1B	.
*	*	*	*ij	*	*
2G\	in	2B\	Be-	.	.
*	*	*	*	*Xlig	*
*	*	*	*	*lig	*
2A\	mu-	1A	-ne-	1c	.
2F\	-li-	.	.	.	.
=32-	=32-	=32-	=32-	=32-	=32-
2.D/	-e-	2A/	-di-	1d	.
.	.	2d\	-cta	.	.
4C/	.	.	.	.	.
*	*	*	*	*Xlig	*
*	*	*	*	*lig	*
4D/	.	1c	tu	1A	.
*	*	*	*Xij	*	*
4E\	.	.	.	.	.
1F\	.	.	.	.	.
=33-	=33-	=33-	=33-	=33-	=33-
.	.	2r	.	1G,<	.
2E\	.	2C/	in	.	.
*	*	*	*	*Xlig	*
2D/	.	2D/	mu-	1A	in
*custos:BB	*	*	*	*	*
2C/	.	4E/	-li-	.	.
.	.	4F/	.	.	.
!LO:LB:g=original	!	!	!	!	!
=34-	=34-	=34-	=34-	=34-	=34-
*	*	*	*	*lig	*
2BB/	.	4G/	.	1G	Mu-
.	.	4E/	.	.	.
2C/	.	1G	-e-	.	.
*	*	*	*	*custos:B	*
1AA	-ri-	.	.	1c	.
*	*	*custos:G	*	*	*
.	.	2F/	-ri-	.	.
*	*	*	*	*Xlig	*
!	!	!LO:LB:g=original	!	!LO:LB:g=original	!
=35-	=35-	=35-	=35-	=35-	=35-
*	*	*	*	*lig	*
1GG	-bus	1G	-bus	1B	.
*	*	*	*ij	*	*
1D	in	2.F/	in	1A	.
.	.	4G/	.	.	.
*	*	*	*	*Xlig	*
=36-	=36-	=36-	=36-	=36-	=36-
2.D/	mu-	1.A	-mu-	1d	-li-
4C/	.	.	.	.	.
*	*	*	*	*lig	*
4AA/	.	.	.	1c	-e-
4BB/	.	.	.	.	.
2C/	.	1G/	.	.	.
=37-	=37-	=37-	=37-	=37-	=37-
1GG	.	.	.	1B	.
.	.	2G/	-li-	.	.
*	*	*	*	*Xlig	*
1AA	-li-	1E	.	1A	.
=38-	=38-	=38-	=38-	=38-	=38-
*lig	*	*	*	*	*
1AA	-e-	2.E/	-e-	1c	-ri-
.	.	4D/	.	.	.
1.C	.	4E/	.	1c,<	-bus
.	.	4F/	.	.	.
.	.	2G/	ri-	.	.
*Xlig	*	*	*	*	*
=39-	=39-	=39-	=39-	=39-	=39-
.	.	2C/	-bus	1G,<	et
*	*	*	*Xij	*	*
2C/	-ri-	2c\	et	.	.
!LO:TX:a:t=P:global:problem=oddech jako rozdzielacz słów	!	!	!	!	!
2GG,</	-bus	2.d\	Be-	1B	Be-
2G\	et	.	.	.	.
.	.	8c\L	.	.	.
.	.	8B\J	.	.	.
=40-	=40-	=40-	=40-	=40-	=40-
2F\	Be-	2A/	.	1c	-ne-
*custos:D	*	*	*	*	*
2E\	-ne-	2G/	-ne-	.	.
!LO:PB:g=original	!	!	!	!	!
1D	-di-	2.A/	-di-	1d	.
*	*	*custos:A	*	*	*
.	.	4G/	.	.	.
!	!	!LO:LB:g=original	!	!	!
=41-	=41-	=41-	=41-	=41-	=41-
1GG	-ctus	4A/	.	1c	.
.	.	4B\	.	.	.
.	.	1c	.	.	.
*	*	*	*	*lig	*
0rC	.	.	.	1A	-di-
.	.	2d\	.	.	.
=42-	=42-	=42-	=42-	=42-	=42-
.	.	1A	-ctus	1c	.
*	*	*	*	*Xlig	*
*	*	*	*	*lig	*
1rD	.	1B	.	1G	-ctus
=43-	=43-	=43-	=43-	=43-	=43-
2rC	.	2A/	.	1A	.
*	*ij	*	*	*	*
2C/	et	2c\	.	.	.
*	*	*	*	*Xlig	*
*	*	*	*	*lig	*
2BB/	be-	1d	.	1B	.
2GG/	-ne-	.	.	.	.
=44-	=44-	=44-	=44-	=44-	=44-
*	*	*	*	*custos:A	*
2AA/	-di-	2.A/	.	1c	.
2.FF/	.	.	.	.	.
.	.	4B\	.	.	.
*	*	*	*	*Xlig	*
!	!	!	!	!LO:LB:g=original	!
*	*	*	*	*lig	*
.	.	1c	.	1A	.
4GG/	.	.	.	.	.
4AA/	.	.	.	.	.
4BB/	.	.	.	.	.
=45-	=45-	=45-	=45-	=45-	=45-
1C	.	2c\	.	1G,<	.
.	.	4B\	.	.	.
.	.	4A/	.	.	.
*	*	*	*	*Xlig	*
*	*	*	*	*lig	*
1GG	-ctus	2.B\	.	1G	fru-
*	*Xij	*	*	*	*
.	.	4c\	.	.	.
=46-	=46-	=46-	=46-	=46-	=46-
2rC	.	1d	.	1F	.
2D/	fru-	.	.	.	.
*	*	*	*	*Xlig	*
*	*	*	*	*lig	*
1C	-ctus	0r	.	1G	.
=47-	=47-	=47-	=47-	=47-	=47-
2.F\	Ven-	.	.	1A	.
4E\	.	.	.	.	.
*	*	*	*	*Xlig	*
*	*	*	*	*lig	*
4D/	.	2r	.	1F	.
4C/	.	.	.	.	.
*custos:AA	*	*	*	*	*
2D/	.	1d\	fru-	.	.
!LO:LB:g=original	!	!	!	!	!
=48-	=48-	=48-	=48-	=48-	=48-
1AA	-tris	.	.	1E	.
*	*	*custos:d	*	*	*
.	.	2c\	-ctus	.	.
*	*	*	*	*Xlig	*
!	!	!LO:LB:g=original	!	!	!
2rC	.	2d\	ven-	1D,<	-ctus
*	*ij	*	*	*	*
2D/	fru-	2A/	.	.	.
=49-	=49-	=49-	=49-	=49-	=49-
*	*	*	*	*lig	*
2GG/	.	2B\	-tris	1D	Ven-
2D/	-ctus	4A/	tu-	.	.
.	.	4B\	.	.	.
2C/	Ven-	2c\	.	1E	.
2E\	.	4B\	.	.	.
.	.	4c\	.	.	.
*	*	*	*	*Xlig	*
=50-	=50-	=50-	=50-	=50-	=50-
*	*	*	*	*lig	*
1D	.	1d	.	1F	.
1GG	-tris	1B	.	1G	.
*	*Xij	*	*	*Xlig	*
=51-	=51-	=51-	=51-	=51-	=51-
*	*	*	*	*lig	*
2rC	.	2c\	.	1F	.
2D/	Ven-	2.d\	.	.	.
2.F\	-tris	.	.	1A	.
.	.	4A/	.	.	.
.	.	1d\	.	.	.
4E\	.	.	.	.	.
*	*	*	*	*Xlig	*
=52-	=52-	=52-	=52-	=52-	=52-
*	*	*	*	*lig	*
4D/	.	.	.	1F	-tris
4C/	.	.	.	.	.
2D/	tu-	2A/	.	.	.
2GG/	-i	2B\	.	1G,<	.
2.C/	fru-	1c\	.	.	.
*	*	*	*	*Xlig	*
=53-	=53-	=53-	=53-	=53-	=53-
*	*	*	*	*lig	*
.	.	.	.	1G	tu-
4D/	.	.	.	.	.
2E\	.	4B\	.	.	.
.	.	4c\	.	.	.
1D	.	1d	.	1A	.
=54-	=54-	=54-	=54-	=54-	=54-
*custos:C	*	*	*	*	*
2E\	.	2B\	i	1G	.
!LO:LB:g=original	!	!	!	!	!
2C/	.	2r	.	.	.
*	*	*	*	*Xlig	*
!	!	!	!	!LO:N:vis=0	!
2GG/	-ctus	2rd	.	[1Gl;;	-i.
*	*	*custos:B	*	*	*
2.GG/	Ven-	2d\	fru-	.	.
!	!	!LO:PB:g=original	!	!	!
=55-	=55-	=55-	=55-	=55-	=55-
.	.	2B\	-ctus	0G_	.
4AA/	.	.	.	.	.
2BB/	-tris	2G/	Ven-	.	.
1C	tu-	2g\	-tris	.	.
.	.	2e\	.	.	.
=56-	=56-	=56-	=56-	=56-	=56-
2GG/	-i	4d\	tu-	0G_	.
.	.	4c\	.	.	.
2G\	fru-	4B\	.	.	.
.	.	4A/	.	.	.
2E\	-ctus	2G/	.	.	.
2C/	Ven-	1c\	.	.	.
=57-	=57-	=57-	=57-	=57-	=57-
2G\	.	.	.	0G_	.
2G\	-tris	2B\	.	.	.
4C/	tu-	1c	-i.	.	.
4D/	.	.	.	.	.
4E\	.	.	.	.	.
4F\	.	.	.	.	.
=58-	=58-	=58-	=58-	=58-	=58-
2.G\	.	0Bl	.	0G]	.
4GG/	-i	.	.	.	.
1GGl	.	.	.	.	.
==	==	==	==	==	==
*-	*-	*-	*-	*-	*-
!!!system-decoration: [s1,s2,s3]
!!!RDF**kern: l = terminal long
!!!AIN: 1 empty 1 tenor 1 vox
!!!ENC: Marta Lawrence
!!!END: 2021-03-21
!!!ENC: Krzysztof Stępień
!!!END: 2021-03-06
